X:243
T: SO WILLST DU WIEDER EINSAM MICH VERLASSEN
N: E1381A
O: Europa, Mitteleuropa, Deutschland, Hessen
R: Staende -, Soldaten -, Kriegs - Lied
M: 2/4
L: 1/16
K: D
A2A2B2 | A6F2 | B3AG2E2 | E2F2F4 | z2
D2E2F2 | G6A2 | F4A3F | E4z4 | z2
A2A2B2 | A6F2 | B3AG2E2 | E2F2F4 | z2
d2c2B2 | A6A2 | ^G2B2d2G2 | A4z4 | z2
A2A2c2 | e6d2 | c2B2A2G2 | B2A2F4 | z2
A2A2c2 | e6d2 | c2B2A2G2 | B2A2F4 | z2
A2B2c2 | d6d2 | f3ed2c2 | B4z4 | z2
B2c2d2 | A6A2 | c2B2A2G2 | F4z4 | z2

